icons/24x24_archive_outline.svg

<svg xmlns="http://www.w3.org/2000/svg" width="24" height="24" viewBox="0 0 24 24">
  <path d="M5,9 L5,19 L19,19 L19,9 L5,9 Z M21,9 L21,19 C21,20.1045695 20.1045695,21 19,21 L5,21 C3.8954305,21 3,20.1045695 3,19 L3,9 C2.44771525,9 2,8.55228475 2,8 L2,3 L22,3 L22,8 C22,8.55228475 21.5522847,9 21,9 Z M4,5 L4,7 L20,7 L20,5 L4,5 Z M9.5,11 L14.5,11 C15.3284271,11 16,11.6715729 16,12.5 C16,13.3284271 15.3284271,14 14.5,14 L9.5,14 C8.67157288,14 8,13.3284271 8,12.5 C8,11.6715729 8.67157288,11 9.5,11 Z"/>
</svg>

<svg width="24" height="24" fill="none" xmlns="http://www.w3.org/2000/svg"><path d="M5 9v10h14V9H5Zm16 0v10a2 2 0 0 1-2 2H5a2 2 0 0 1-2-2V9a1 1 0 0 1-1-1V3h20v5a1 1 0 0 1-1 1ZM4 5v2h16V5H4Zm5.5 6h5a1.5 1.5 0 0 1 0 3h-5a1.5 1.5 0 0 1 0-3Z" fill="#000"/></svg>
